X:270
T: Old Towler
N: O'Farrell's Pocket Companion v.3 (Sky ed. p.124)
M: 6/8
L: 1/8
R: jig
Q: 250
K: D
AB/c/| d2dB2G| F2GA2=c| B2d ceg|f3e2A| d2df2d|B2Be2d|
c2cBAB|A3A  :|z2| e2cA2A| f2dA2A| cde g2f|f3e2A| A^GA Bcd|
efg afd| B2e {d}cBc| d3d2 D//E//F//G//|A3 A3|Ad2z2A| AFA AFA|
Ad2z2 A//B//c//d//| e3e3| ea2z2e| ece ece| eg2z2g| fd2z2d|
eA2 c2g|fdd d2f|eAA A2A|dff dff|d3 z2-z//A//B//c//| dff dff|
fHa2 z2 A//G//F//E//| D2GF2B| A2g f2d| e2e cBc|d3 g3|
f2f ede| a3 g3|f2f ede| d3 d2 ||
